X: 2070
T: Asturian Air
R: hornpipe
M: 4/4
K: Aminor
E|:A2AB {B}c2 {Bc}BG|E3G F2{FGF}ED|{D}E2 E4 {F}E{F}E|
A3 {A/B/c/}dc{Bc}BG|JE3G F2 {FGF}ED|{D}E2 E3 ((3Bcd)|
{d}e4e z {de}dc|B3 {cB}A A4|{A/B/c/}d2 dc {de}dc{Bc}BA|^GABc B2 {cB}AE|
{A/B/c/}d2 dc {de}dc{Bc}BA|^GABc B2 {cB}AE|{Bcd}d2 dcBA|^G4G zEE:|

